!!!!SEGMENT: pl-gd--ee-1638--005-003_marenzio-luca--il-primo-libro-de-madrigali-spirituali-a-cinque-voci-si-che-s-al-cominciar.krn
!!!cenid: 15xx:956
!!!COM: Marenzio, Luca
!!!COM-rismID: pe30003955
!!!CDT: ~1553-1599/08/22
!!!CNT: Italian
!!!GTL: Il Primo libro de madrigali spirituali a cinque voci
!!!OTL: Si che s’al cominciar
!!!OMV: 003
!!!PDT: 1588
!!!AGN:
!!!SMS-siglum: PL-GD
!!!SMS-shelfmark: Ee 1638
!!!SMS-shelfwork: 005-003 G
!!!SMS-variant:
!!!SMS-altvar:
!!!NIFC-rismSourceID: 1001202747
!!!NIFC-rismChildID: 990039269
!!!NIFC-islandoraID: pl-gd:57883
!!!URL-pdf-islandora: https://repozytorium.nifc.pl/islandora/object/pl-gd%3A57883/datastream/PDF/view
!!!URL-scan: https://polish.musicsources.pl/pl/lokalizacje/galeria/klocki-introligatorskie/655 @EN{Scan on Polish Music Sources Website} @PL{Skany w portalu Dziedzictwo Muzyki Polskiej w otwartym dostępie}
!!!IIIF:
!!!ONB-nifc: UWAGA: zbiór na stronach: Canto: s. 666-677, Alto: s. 514-525, Tenore: s. 362-373, Bassus: s. 210-221, Quinto: s. 58-69. Uwaga: utwory podzielone wg tytułów w spisach treści dostępnych na końcu każdej księgi głosowej.
!!!AIN: 1 alto 1 bass 1 soprn 1 tenor 1 vox
!!!key:
**kern	**text	**kern	**text	**kern	**text	**kern	**text	**kern	**text
*part5	*part5	*part4	*part4	*part3	*part3	*part2	*part2	*part1	*part1
*staff5	*staff5	*staff4	*staff4	*staff3	*staff3	*staff2	*staff2	*staff1	*staff1
*I"QVINTO	*	*I"BASSO	*	*I"TENORE	*	*I"ALTO	*	*I"CANTO	*
*I'V	*	*I'B	*	*I'T	*	*I'A	*	*I'S	*
*ICvox	*	*ICvox	*	*ICvox	*	*ICvox	*	*ICvox	*
*Ivox	*	*Ibass	*	*Itenor	*	*Ialto	*	*Isoprn	*
*clefC4	*	*clefF4	*	*clefC4	*	*clefC3	*	*clefC1	*
*mclefGv2	*	*	*	*mclefGv2	*	*mclefG2	*	*mclefG2	*
*k[]	*	*k[]	*	*k[]	*	*k[]	*	*k[]	*
*a:	*	*a:	*	*a:	*	*a:	*	*a:	*
*M2/1	*	*M2/1	*	*M2/1	*	*M2/1	*	*M2/1	*
*met(C|)	*	*met(C|)	*	*met(C|)	*	*met(C|)	*	*met(C|)	*
*mmet(c|)	*	*mmet(c|)	*	*mmet(c|)	*	*mmet(c|)	*	*mmet(c|)	*
=1-	=1-	=1-	=1-	=1-	=1-	=1-	=1-	=1-	=1-
!LO:TX:a:t=Seconda Parte	!	!LO:TX:a:t=Seconda Parte	!	!LO:TX:a:t=Seconda Parte.	!	!LO:TX:a:t=Seconda Parte.	!	!LO:TX:a:t=Seconda Parte.	!
!	!	!	!	!	!	!	!LO:MO:mod=Si	!	!
0r	.	1r	.	0r	.	1e	SI	1r	.
!	!	!	!LO:MO:mod=Si	!	!	!	!	!	!LO:MO:mod=Si
.	.	1A	SI	.	.	1c	che	1cc	SI
=2-	=2-	=2-	=2-	=2-	=2-	=2-	=2-	=2-	=2-
!	!LO:MO:mod=Si	!	!	!	!	!	!	!	!
1c	SI	1F	che	1A	SI	2r	.	1a	che
.	.	.	.	.	.	2c/	s'al	.	.
1A	che	2r	.	1F	che	2c/	co-	2r	.
.	.	2F\	s'al	.	.	2c/	-min-	2a\	s'al
=3-	=3-	=3-	=3-	=3-	=3-	=3-	=3-	=3-	=3-
0r	.	2F\	co-	0r	.	1d	-ciar	2a\	co-
.	.	2F\	-min-	.	.	.	.	2a\	-min-
.	.	1G	-ciar	.	.	2d\	di	1b	-ciar
.	.	.	.	.	.	1e\	tan-	.	.
=4-	=4-	=4-	=4-	=4-	=4-	=4-	=4-	=4-	=4-
00r	.	2G\	di	1r	.	.	-ti	2b\	di
.	.	1A	tan-	.	.	2e\	aſ-	1cc	tan-
.	.	.	.	1A	s'al	4f\	-ſan-	.	.
.	.	.	.	.	.	4e\	.	.	.
.	.	2G\	-ti aſ-	.	.	1e\	.	2b\	-ti aſ
=5-	=5-	=5-	=5-	=5-	=5-	=5-	=5-	=5-	=5-
.	.	1F	-ſan-	2A/	co-	.	.	1a	-ſa-
.	.	.	.	2A/	-min-	2d\	.	.	.
!	!	!	!	!	!	!LO:SIC:v:t=custos g	!	!	!
.	.	1E	-ni	1B	-ciar	2e\	-ni	2g#X/	-ni
!	!	!	!	!	!	!LO:LB:g=original	!	!	!
.	.	.	.	.	.	2g\	di	1b\	di
=6-	=6-	=6-	=6-	=6-	=6-	=6-	=6-	=6-	=6-
1E	Pre-	1r	.	2B\	di	2g\	tan-	.	.
.	.	.	.	1c	tan-	2e\	-ti aſ-	2gny/	tan-
!	!	!	!	!	!	!	!	!LO:SIC:v:t=custos g	!
2F#X/	-ſe	1D	s'al	.	.	1d	-ſan-	2a\	-ti aſ-
!	!	!	!	!	!	!	!	!LO:LB:g=original	!
2G/	ca-	.	.	2B\	-ti aſ-	.	.	2.g/	-ſan-
=7-	=7-	=7-	=7-	=7-	=7-	=7-	=7-	=7-	=7-
2A/	-min	2D/	co-	1A	-ſan-	1d	-ni	.	.
.	.	.	.	.	.	.	.	8f#X/	.
.	.	.	.	.	.	.	.	8e/	.
2d\	che'l	2D/	-min-	.	.	.	.	2f#X/	.
!	!	!LO:SIC:v:t=custos E	!	!	!	!	!	!	!
4c\	paſ-	1E	-ciar	1G	-ni	1r	.	2g/	-ni
4c\	-ſo al	.	.	.	.	.	.	.	.
4B\	ciel	.	.	.	.	.	.	2e/	Pre-
4B\	li	.	.	.	.	.	.	.	.
!	!	!LO:LB:g=original	!	!	!	!	!	!	!
=8-	=8-	=8-	=8-	=8-	=8-	=8-	=8-	=8-	=8-
2c\	ſer-	2E\	di	1r	.	2r	.	2g/	-ſe
2A/	-ra	1F	tan-	.	.	2c/	Pre-	2a\	ca-
!LO:SIC:v:t=custos d	!	!	!	!	!	!	!	!	!
1r	.	.	.	2r	.	2d\	-ſe	1g	-min
!	!	!	!	!LO:SIC:v:t=custos A	!	!	!	!	!
.	.	2E\	-ti aſ-	2G/	Pre-	2e\	ca-	.	.
!LO:LB:g=original	!	!	!	!LO:LB:g=original	!	!	!	!	!
=9-	=9-	=9-	=9-	=9-	=9-	=9-	=9-	=9-	=9-
2r	.	1D	-ſan-	2A/	-ſe	1f	-min	1r	.
2d\	Pre-	.	.	2B\	ca-	.	.	.	.
2e\	-ſe	2C/	-ni	4c\	-min	1r	.	2r	.
.	.	.	.	4c\	che'l	.	.	.	.
2e\	ca-	2E\	Pre-	4B\	paſ-	.	.	2g/	Pre-
.	.	.	.	4B\	-ſo al	.	.	.	.
=10-	=10-	=10-	=10-	=10-	=10-	=10-	=10-	=10-	=10-
1d	-min	2F#X\	-ſe	4A/	ciel	4r	.	2a\	-ſe
.	.	.	.	4A/	li	4a\	che'l	.	.
.	.	2G\	ca-	2.d\	ſer-	4g\	paſ-	2b\	ca-
.	.	.	.	.	.	4g\	-ſo al	.	.
1r	.	2A\	-min	.	.	4f\	ciel	2cc\	-min
.	.	.	.	2c\	.	4e\	li	.	.
.	.	2G\	che'l	.	.	2g\	ſer-	2dd\	che'l
.	.	.	.	4B\	.	.	.	.	.
=11-	=11-	=11-	=11-	=11-	=11-	=11-	=11-	=11-	=11-
2r	.	4C/	paſ-	2c\	-ra	1g	-ra	4ee\	paſ-
.	.	4C/	-ſo al	.	.	.	.	4ee\	-ſo al
2d\	|che'l	4BB/	ciel	4r	.	.	.	4dd\	ciel
!	!	!	!	!	!	!	!	!LO:SIC:v:t=custos g	!
.	.	4BB/	li	4d\	che'l	.	.	4dd\	li-
!	!	!	!	!	!	!	!	!LO:LB:g=original	!
4c\	paſ-	2C/	ſer-	4e\	paſ-	4r	.	1g	-ſer-
!	!	!	!	!	!	!LO:SIC:v:t=custos g	!	!	!
4c\	-ſo al	.	.	4e\	-ſo al	4e\	al	.	.
!	!	!	!	!	!	!LO:LB:g=original	!	!	!
4B\	ciel	2GG/	-ra	4d\	ciel	4g\	ciel	.	.
4B\	li	.	.	2d\	li	4d\	il	.	.
=12-	=12-	=12-	=12-	=12-	=12-	=12-	=12-	=12-	=12-
2c\	ſer-	1r	.	.	.	2e\	ſer-	1g	-ra
.	.	.	.	2c\	ſer-	.	.	.	.
2G/	-ra	.	.	.	.	2d\	-ra	.	.
.	.	.	.	4B\	-ra	.	.	.	.
2r	.	2r	.	2r	.	2r	.	2r	.
!	!	!	!	!LO:SIC:v:t=custos c	!	!	!	!	!
2G/	Al-	2C/	Al-	2c\	Al-	2e\	Al-	2g/	Al-
!	!	!	!	!LO:LB:g=original	!	!	!	!	!
=13-	=13-	=13-	=13-	=13-	=13-	=13-	=13-	=13-	=13-
2.G/	-men	2.C/	-men	2.c\	-men	2.e\	-men	2.cc\	-men
4G/	ſi	4GG/	ſi	4d\	ſi	4g\	ſi	4b\	ſi
!	!	!LO:SIC:v:t=custos E	!	!	!	!	!	!	!
2A/	vol-	2D/	vol-	2d\	vol-	2f#X\	vol-	2a\	vol-
!	!	!LO:LB:g=original	!	!	!	!	!	!	!
2e\	-ga à	2E\	-ga à	2B\	-ga à	2g\	-ga à	2g/	-ga à
=14-	=14-	=14-	=14-	=14-	=14-	=14-	=14-	=14-	=14-
1A	te	1D	te	1d	te	1a	te	1f#X	te
2A/	ne	2D/	ne'	2d\	ne	2f#X\	ne'	2a\	ne'
!LO:SIC:v:t=custos d	!	!	!	!	!	!	!	!	!
2G/	mi-	1G\	mi-	1d\	mi-	1g\	mi-	1b\	mi-
!LO:LB:g=original	!	!	!	!	!	!	!	!	!
=15-	=15-	=15-	=15-	=15-	=15-	=15-	=15-	=15-	=15-
2d\	-glior	.	.	.	.	.	.	.	.
2.c\	an-	2E\	-glior	2G/	-glior	2g\	-glior	2cc\	-glior
.	.	1D	an-	1d	an-	1fny	an-	1dd	an-
8B\	.	.	.	.	.	.	.	.	.
8A\	.	.	.	.	.	.	.	.	.
2B\	.	.	.	.	.	.	.	.	.
=16-	=16-	=16-	=16-	=16-	=16-	=16-	=16-	=16-	=16-
1c	-ni	0.C	-ni	0G	-ni	1e	-ni	2ee\	-ni
.	.	.	.	.	.	.	.	2e/	ſi-
2r	.	.	.	.	.	2r	.	1g	-gnor
2c\	ſi-	.	.	.	.	2e\	si-	.	.
=17-	=17-	=17-	=17-	=17-	=17-	=17-	=17-	=17-	=17-
1e	-gnor	.	.	2r	.	1g	-gnor	2r	.
.	.	.	.	2c\	si-	.	.	2e/	si-
2r	.	1r	.	1e	-gnor	2r	.	1g	-gnor
!	!	!	!	!	!	!LO:SIC:v:t=custos c	!	!	!
2c\	ſ-	.	.	.	.	2e\	ſi-	.	.
!	!	!	!	!	!	!LO:LB:g=original	!	!	!
=18-	=18-	=18-	=18-	=18-	=18-	=18-	=18-	=18-	=18-
2A/	-gnor	0r	.	1e	com'	2c/	-gnor	1a	com'
2A/	com'	.	.	.	.	2c/	com'	.	.
1D	hog-	.	.	1d	hog-	1f	hog-	1a	hog-
=19-	=19-	=19-	=19-	=19-	=19-	=19-	=19-	=19-	=19-
1A	-gi	2r	.	1c#X	-gi	1e	-gi	1.a	-gi
.	.	2AA/	ſi-	.	.	.	.	.	.
2r	.	1D	-gnor	4.d\	fla-	4.f\	fla-	.	.
.	.	.	.	8c#\	-gel-	8e\	-gel-	.	.
!	!	!	!	!	!	!	!	!LO:SIC:v:t=custos dd	!
4.d\	fla-	.	.	4B\	-la-	4d\	-la-	2r	.
!	!	!	!	!LO:SIC:v:t=custos d	!	!	!	!	!
.	.	.	.	4A/	-to	4f#X\	-to in	.	.
8c\	-gel-	.	.	.	.	.	.	.	.
!	!	!	!	!LO:LB:g=original	!	!	!	!LO:LB:g=original	!
=20-	=20-	=20-	=20-	=20-	=20-	=20-	=20-	=20-	=20-
4B\	-la-	1D	com'	2r	.	2f#yX\	ter-	4.dd\	fla-
4A/	-to in	.	.	.	.	.	.	.	.
.	.	.	.	.	.	.	.	8cc\	-gel-
2D/	ter-	.	.	4.d\	fla-	2f#\	-ra	4b\	-la-
.	.	.	.	.	.	.	.	4a\	-to
.	.	.	.	8cny\	-gel-	.	.	.	.
2D/	-ra	0GG	hog-	4B\	-la-	4.g\	fla-	4.b\	fla-
.	.	.	.	4G/	-to in	.	.	.	.
.	.	.	.	.	.	8f#\	-gel-	8a\	-gel-
4.G/	fla-	.	.	2B\	ter-	4e\	-la-	4g/	-la-
.	.	.	.	.	.	4d\	-to	4b\	-to in
!LO:SIC:v:t=custos E	!	!	!	!	!	!	!	!	!
8Fny/	-gel-	.	.	.	.	.	.	.	.
!LO:LB:g=original	!	!	!	!	!	!	!	!	!
=21-	=21-	=21-	=21-	=21-	=21-	=21-	=21-	=21-	=21-
4E/	-la-	.	.	2B\	-ra	4.g\	fla-	1b	ter-
4D/	-to in	.	.	.	.	.	.	.	.
.	.	.	.	.	.	8fny\	-gel-	.	.
2.G/	ter-	.	.	4r	.	4e\	-la-	.	.
.	.	.	.	4B\	com'	4d\	-to in	.	.
.	.	1D	-gi	2d\	hog-	1d	ter-	1a	-ra
8F#X/	.	.	.	.	.	.	.	.	.
8E/	.	.	.	.	.	.	.	.	.
2F#X/	.	.	.	2A/	-gi	.	.	.	.
=22-	=22-	=22-	=22-	=22-	=22-	=22-	=22-	=22-	=22-
2G/	-ra	4.C/	fla-	4.c\	fla-	2e\	-ra	1r	.
.	.	8D/	-gel-	8B\	-gel-	.	.	.	.
2r	.	4E\	-la-	4G/	-la-	2c/	com'	.	.
.	.	4Fny\	-to	4A/	-to	.	.	.	.
!	!	!	!	!	!	!LO:SIC:v:t=custos d	!	!	!
1r	.	4.D/	fla-	4.F/	fla-	2d\	hog	4.a\	fla-
.	.	8E\	-gel-	8G/	-gel-	.	.	8g/	-gel-
!	!	!	!	!	!	!LO:LB:g=original	!	!	!
.	.	4F\	-la-	4A/	-la-	2d\	gi	4fny/	-la-
!	!	!LO:SIC:v:t=custos C	!	!	!	!	!	!	!
.	.	4G\	-to in	4B\	-to in	.	.	4d/	-to in
!	!	!LO:LB:g=original	!	!	!	!	!	!	!
=23-	=23-	=23-	=23-	=23-	=23-	=23-	=23-	=23-	=23-
*	*	*	*	*lig	*	*	*	*	*
4.G/	fla-	2.C/	ter-	1c	ter-	4.g\	fla-	2e/	ter-
8Fny/	-gel-	.	.	.	.	8a\	-gel-	.	.
4E/	-la-	.	.	.	.	4g\	-la-	2c/	-ra
2A/	-to in	4D/	.	.	.	4f\	-to in	.	.
.	.	1E	.	1B	.	1e	ter-	1r	.
8G#X/	ter-	.	.	.	.	.	.	.	.
8F#X/	.	.	.	.	.	.	.	.	.
2G#X/	.	.	.	.	.	.	.	.	.
*	*	*	*	*Xlig	*	*	*	*	*
=24-	=24-	=24-	=24-	=24-	=24-	=24-	=24-	=24-	=24-
!	!	!	!	!LO:SIC:v:t=custos A	!	!	!	!	!
2A/	-ra	2AA/	-ra	0A	-ra	2c/	-ra	2r	.
!	!	!	!	!	!	!	!	!	!LO:MO:mod=Col
2c\	Col	2A\	Col	.	.	4r	.	2a\	col
.	.	.	.	.	.	4e\	Col	.	.
2.c\	ſan-	2F\	ſan-	.	.	2f\	ſan-	2a\	ſan-
.	.	2A\	-gue	.	.	2c/	-gue	2e/	-gue
4A/	-gue	.	.	.	.	.	.	.	.
!	!	!	!	!LO:LB:g=original	!	!	!	!	!
=25-	=25-	=25-	=25-	=25-	=25-	=25-	=25-	=25-	=25-
2B\	riſ-	2G\	riſ-	00r	.	2d\	riſ-	2g/	riſ-
!LO:SIC:v:t=custos c	!	!	!	!	!	!	!	!LO:SIC:v:t=custos a	!
2B\	-to-	2G\	-to-	.	.	2e\	-to-	2g/	-to-
!LO:LB:g=original	!	!	!	!	!	!	!	!LO:LB:g=original	!
2.c\	-raſ-	2.F\	-raſ-	.	.	2.f\	-raſ-	2.a\	-raſ-
4c\	-ti i	4F\	-ti i	.	.	4f\	-ti i	4a\	-ti i
=26-	=26-	=26-	=26-	=26-	=26-	=26-	=26-	=26-	=26-
2c\	noſ-	2F\	noſ-	.	.	2f\	noſ-	2a\	noſ-
2d\	-tri	2D/	-tri	.	.	2f\	-tri	2a\	-tri
1d	dan-	1B-X	dan-	.	.	2f\	dan-	1.dd	dan-
.	.	.	.	.	.	2g\	.	.	.
=27-	=27-	=27-	=27-	=27-	=27-	=27-	=27-	=27-	=27-
1e	-ni	1A	-ni	2r	.	1a	-ni	.	.
.	.	.	.	2.A/	Por-	.	.	2cc#X\	-ni
2.A/	Porg'	1r	.	.	.	2r	.	1r	.
.	.	.	.	4B\	-gi ho-	.	.	.	.
.	.	.	.	2c#X\	-mai	2.A/	Por-	.	.
4Gny/	ho-	.	.	.	.	.	.	.	.
=28-	=28-	=28-	=28-	=28-	=28-	=28-	=28-	=28-	=28-
2Fny/	-mai	1r	.	2d\	pa-	.	.	2.a\	Por-
!	!	!	!	!	!	!LO:SIC:v:t=custos c#	!LO:MO:mod=-gi ho	!	!
.	.	.	.	.	.	4B/	-ghi ho	.	.
!	!	!	!	!	!	!LO:LB:g=original	!	!	!
2E/	pa-	.	.	2e\	-ce à	2c#X/	mai	.	.
.	.	.	.	.	.	.	.	4g/	-gi ho-
1D	-ce	2r	.	2.A/	la	2d\	pa-	1f	-mai
.	.	2D/	à	.	.	2a\	-ce à	.	.
.	.	.	.	4B\	mia	.	.	.	.
=29-	=29-	=29-	=29-	=29-	=29-	=29-	=29-	=29-	=29-
00r	.	2.A\	la	1c#X	lun-	2.a\	la	1.e	pa-
.	.	4A\	mia	.	.	4a\	mia	.	.
.	.	2A\	lun-	2c#X\	-ga	2a\	lun-	.	.
.	.	2B-X\	-ga	2.d\	guer-	2g\	-ga	2d/	-ce à
=30-	=30-	=30-	=30-	=30-	=30-	=30-	=30-	=30-	=30-
!	!	!LO:SIC:v:t=custos D	!	!	!	!	!	!	!
.	.	1A	guer-	.	.	4f\	guer-	2.a\	la
.	.	.	.	8c#X\	.	8e\	.	.	.
.	.	.	.	8B\	.	8d\	.	.	.
.	.	.	.	2c#X\	.	2e\	.	.	.
.	.	.	.	.	.	.	.	4a\	mia
!	!	!LO:LB:g=original	!	!	!	!	!	!	!
.	.	0D	-ra	1d	-ra	2f#X\	.	2a\	lun-
.	.	.	.	.	.	2.g\	.	2b-X\	-ga
=31-	=31-	=31-	=31-	=31-	=31-	=31-	=31-	=31-	=31-
2r	.	.	.	1r	.	.	.	1a	guer-
.	.	.	.	.	.	8f#X\	.	.	.
.	.	.	.	.	.	8e\	.	.	.
2.d\	Porg'	.	.	.	.	2f#X\	.	.	.
.	.	2.G\	Porg'	2r	.	1g	-ra	4d/	-ra
!	!	!	!	!	!	!	!	!	!LO:MO:mod=Por-
4c\	ho-	.	.	.	.	.	.	2g/	Po-
2B\	-mai	.	.	2.G/	Por-	.	.	.	.
!	!	!	!	!	!	!	!	!LO:SIC:v:t=custos b	!
.	.	4F\	ho-	.	.	.	.	4a\	-gi ho
!	!	!	!	!	!	!	!	!LO:LB:g=original	!
=32-	=32-	=32-	=32-	=32-	=32-	=32-	=32-	=32-	=32-
2G/	pa-	2E\	-mai	.	.	2r	.	2bny\	mai
!	!	!	!	!LO:SIC:v:t=custos F	!	!	!	!	!
.	.	.	.	4E/	-gi ho-	.	.	.	.
!	!	!	!	!LO:LB:g=original	!	!	!	!	!
2d\	-ce	1D	pa-	2F/	-mai	2.A/	Por-	1dd	pa-
2r	.	.	.	2F/	pa-	.	.	.	.
!	!	!	!	!	!	!LO:SIC:v:t=custos c	!	!	!
.	.	.	.	.	.	4B/	-gi ho-	.	.
!	!	!	!	!	!	!LO:LB:g=original	!	!	!
2g\	à	2C/	-ce	2E/	-ce à	2cny/	-mai	2ee\	-ce à
=33-	=33-	=33-	=33-	=33-	=33-	=33-	=33-	=33-	=33-
2f\	la	2r	.	2D/	la	2d\	pa-	2.a\	la
2c\	mia	2.AA/	Por-	2A/	mia	2e\	-ce	.	.
.	.	.	.	.	.	.	.	4a\	mia
!	!LO:MO:mod=lun-	!	!	!	!	!	!	!	!
1e	lũ(n)-	.	.	2cny\	lun-	2r	.	2a\	lun-
.	.	4BB/	-gi ho-	.	.	.	.	.	.
.	.	2C/	-mai	2c\	-ga	2e\	à	2g/	-ga
=34-	=34-	=34-	=34-	=34-	=34-	=34-	=34-	=34-	=34-
1d	-ga	1D	pa-	2F/	guer-	2.A/	la	1f	guer-
.	.	.	.	2A/	-ra	.	.	.	.
.	.	.	.	.	.	4A/	mia	.	.
!LO:SIC:v:t=custos B	!	!	!	!	!	!	!	!	!
2c\	guer-	1E	-ce à	2r	.	2A/	lun-	2e/	-ra
!LO:LB:g=original	!	!	!	!	!	!	!	!	!
4B\	-ra	.	.	2E/	à	2G#X/	-ga	2b\	à
4B\	à	.	.	.	.	.	.	.	.
=35-	=35-	=35-	=35-	=35-	=35-	=35-	=35-	=35-	=35-
2.e\	la	2.AA/	la	2.E/	la	1A	guer-	2.ccny\	la
4e\	mia	4AA/	mia	4E/	mia	.	.	4cc\	mia
!	!	!	!	!	!	!LO:N:vis=00	!	!	!
2e\	lun-	2AA/	lun-	2A/	lun-	1%7e	-ra.	2cc\	lun-
2E/	-ga	2GG#X/	-ga	2B\	-ga	.	.	2b\	-ga
=36-	=36-	=36-	=36-	=36-	=36-	=36-	=36-	=36-	=36-
0E	guer-	0AA	guer-	0c	guer-	.	.	0a	guer-
=37-	=37-	=37-	=37-	=37-	=37-	=37-	=37-	=37-	=37-
00E	-ra.	00E	-ra.	00B	-ra.	.	.	00g#X	-ra.
==	==	==	==	==	==	==	==	==	==
*-	*-	*-	*-	*-	*-	*-	*-	*-	*-
!!!system-decoration: [(s1,s2,s3,s4,s5)]
!!!ENC: Andrzej Gręziak
!!!END: 2022-06-28
!!!ENC: Natalia Wrzos
!!!END: 2022-07-14
!!!ENC-modern: Leszek Kubiak
!!!END-modern: 2022-08-16
!!!filter-modern: sic -sq | autostem -r | tie -s | humtr -p | shed -e "s/-//B" | modori -m
!!!YEC: Copyright 2022 Narodowy Instytut Fryderyka Chopina (https://polishscores.org)
!!!YEM: License CC-BY-4.0 (https://creativecommons.org/licenses/by/4.0)
